X:1
T:[ID 1-82]
T:[ID 1-82]
T:Bezeichnung standardisiert: Polonaise Polon\"aise In dieser Quelle auch als: Polonaise In dieser Quelle auch als: Poloniose In dieser Quelle auch als: Menuet In dieser Quelle auch als: Polonoise In dieser Quelle auch als: Tantz
T:Urheber unbekannt Erstbeleg: vor 1767 (Datum in der schriftlichen Quelle) Datum in der hier transkribierten schriftlichen Quelle: 1767
C:Urheber unbekannt
C:Erstbeleg: vor 1767 (Datum in der schriftlichen Quelle)
C:Datum in der hier transkribierten schriftlichen Quelle: 1767
L:1/8
M:3/4
K:D
V:1 treble 
V:1
 f/g/a/f/ dddd | c/d/e/c/ AAAA | (Ac) (ce) (eg) | gf/e/ f4 :: fa/f/ d2 =c2 | B/c/d/B/ A/B/c/A/ G2 | %6
 gb/g/ e2 d2 | c/d/e/c/ B/c/d/B/ A2 | (Ac)(ce)(eg) | (Ad)(df)(fa) | (Ac)(ce)(eg) | f/e/d/c/ d4 :| %12

